svgs/gamesir.svg

<svg width="192" height="192" viewBox="0 0 192 192" fill="none" xmlns="http://www.w3.org/2000/svg">
<path d="M47 95.5793C47 122.612 68.938 144.527 96 144.527C103.568 144.527 106.5 119.554 101.217 106.365M82.541 22.5C48.0579 29.0583 22 59.1753 22 95.3373C22 136.296 55.4296 169.5 96.6672 169.5C133.075 169.5 163.397 143.618 170 109.368C166.5 98.5761 155.5 91.0842 147 87.5879L105 98.5761L101.217 106.365M101.217 106.365C101.217 106.365 97.3503 106.798 95 107.566C92.5773 108.358 88.1086 110.374 88.1086 110.374M107.244 32.6478L111.802 44.3338C106.997 42.9566 101.919 42.2186 96.6672 42.2186C87.7673 42.2186 79.3658 44.338 71.9463 48.0963C79.2112 53.0152 80.6911 53.1965 80.5229 53.1723C69.4602 57.3534 60.4682 65.7062 55.4953 76.2955C67.8739 74.4581 82.541 66.2735 99.1897 77.7988L145.604 66.2735L147.604 43.3181C136 35.1442 124 32.6478 107.244 32.6478Z" stroke="black" stroke-width="12" stroke-linecap="round" stroke-linejoin="round"/>
</svg>

<svg xmlns="http://www.w3.org/2000/svg" width="192" height="192" fill="none" viewBox="0 0 192 192"><path stroke="#000" stroke-linecap="round" stroke-linejoin="round" stroke-width="12" d="M47 95.58c0 27.032 21.938 48.947 49 48.947 7.568 0 10.5-24.973 5.217-38.162M82.541 22.5C48.058 29.058 22 59.175 22 95.337c0 40.959 33.43 74.163 74.667 74.163 36.408 0 66.73-25.882 73.333-60.132-3.5-10.792-14.5-18.284-23-21.78l-42 10.988-3.783 7.789m0 0s-3.867.433-6.217 1.201c-2.423.792-6.891 2.808-6.891 2.808m19.135-77.726 4.558 11.686a55 55 0 0 0-15.135-2.115c-8.9 0-17.301 2.119-24.72 5.877 7.264 4.92 8.744 5.1 8.576 5.076-11.063 4.181-20.055 12.534-25.028 23.124 12.379-1.838 27.046-10.023 43.695 1.503l46.414-11.526 2-22.955C136 35.144 124 32.648 107.244 32.648"/></svg>
